svg/currency_usd_circle.svg

<svg xmlns="http://www.w3.org/2000/svg" viewBox="0 0 24 24"><path d="M12 2a10 10 0 1 0 10 10A10 10 0 0 0 12 2m3 8h-4v1h3a1 1 0 0 1 1 1v3a1 1 0 0 1-1 1h-1v1h-2v-1H9v-2h4v-1h-3a1 1 0 0 1-1-1V9a1 1 0 0 1 1-1h1V7h2v1h2Z"/></svg>

<?xml version="1.0" encoding="UTF-8"?><!DOCTYPE svg PUBLIC "-//W3C//DTD SVG 1.1//EN" "http://www.w3.org/Graphics/SVG/1.1/DTD/svg11.dtd"><svg xmlns="http://www.w3.org/2000/svg" xmlns:xlink="http://www.w3.org/1999/xlink" version="1.1" id="mdi-currency-usd-circle" width="24" height="24" viewBox="0 0 24 24"><path d="M12 2A10 10 0 1 0 22 12A10 10 0 0 0 12 2M15 10H11V11H14A1 1 0 0 1 15 12V15A1 1 0 0 1 14 16H13V17H11V16H9V14H13V13H10A1 1 0 0 1 9 12V9A1 1 0 0 1 10 8H11V7H13V8H15Z" /></svg>
